X: 36685
T: She Hasn't The Thing She Thought She Had
R: slide
M: 12/8
K: Dmajor
|:d/c/|"G" Bcd G2 g|"C" f2 e "G" d2 c|"Em" Bcd GcB|"Am" A3- "D" A2 d/c/|
"G" Bcd G2 g|"C" f2 e "G" d2 B|"Am" cde "D" def|"G" g3- g2:|
|:d|"G" c’ag "Em" a2 g|"C" f2 e "G" d3|bag f2 g|a3- a3|
"G" c’ag "Em" a2 g|"C" f2 e "G" d2 B|"Am" cde "D" def|"G" g3- g2:|

